storage/app/icons/phosphoricons/bold/presentation-chart-bold.svg

<svg xmlns="http://www.w3.org/2000/svg" fill="currentColor" viewBox="0 0 256 256"><path d="M216 36h-76V24a12 12 0 0 0-24 0v12H40a20 20 0 0 0-20 20v120a20 20 0 0 0 20 20h31l-16.4 20.5a12 12 0 0 0 18.74 15l28.4-35.5h52.46l28.4 35.5a12 12 0 0 0 18.74-15L185 196h31a20 20 0 0 0 20-20V56a20 20 0 0 0-20-20m-4 136H44V60h168Zm-108-52v24a12 12 0 0 1-24 0v-24a12 12 0 0 1 24 0m24-28a12 12 0 0 1 12 12v40a12 12 0 0 1-24 0v-40a12 12 0 0 1 12-12m24 52V88a12 12 0 0 1 24 0v56a12 12 0 0 1-24 0"/></svg>

<svg xmlns="http://www.w3.org/2000/svg" viewBox="0 0 256 256" fill="currentColor"><path d="M216,36H140V24a12,12,0,0,0-24,0V36H40A20,20,0,0,0,20,56V176a20,20,0,0,0,20,20H71l-16.4,20.5a12,12,0,0,0,18.74,15l28.4-35.5h52.46l28.4,35.5a12,12,0,0,0,18.74-15L185,196h31a20,20,0,0,0,20-20V56A20,20,0,0,0,216,36Zm-4,136H44V60H212ZM104,120v24a12,12,0,0,1-24,0V120a12,12,0,0,1,24,0Zm24-28a12,12,0,0,1,12,12v40a12,12,0,0,1-24,0V104A12,12,0,0,1,128,92Zm24,52V88a12,12,0,0,1,24,0v56a12,12,0,0,1-24,0Z"/></svg>
